cssgg/arrow-down-o.svg

<svg
  width="24"
  height="24"
  viewBox="0 0 24 24"
  fill="none"
  xmlns="http://www.w3.org/2000/svg"
>
  <path
    d="M14.8285 12.0259L16.2427 13.4402L12 17.6828L7.7574 13.4402L9.17161 12.0259L11 13.8544V6.31724H13V13.8544L14.8285 12.0259Z"
    fill="currentColor"
  />
  <path
    fill-rule="evenodd"
    clip-rule="evenodd"
    d="M19.7782 19.7782C15.4824 24.0739 8.51759 24.0739 4.22183 19.7782C-0.0739417 15.4824 -0.0739417 8.51759 4.22183 4.22183C8.51759 -0.0739419 15.4824 -0.0739419 19.7782 4.22183C24.0739 8.51759 24.0739 15.4824 19.7782 19.7782ZM18.364 18.364C14.8492 21.8787 9.15076 21.8787 5.63604 18.364C2.12132 14.8492 2.12132 9.15076 5.63604 5.63604C9.15076 2.12132 14.8492 2.12132 18.364 5.63604C21.8787 9.15076 21.8787 14.8492 18.364 18.364Z"
    fill="currentColor"
  />
</svg>

<svg viewBox="0 0 24 24" xmlns="http://www.w3.org/2000/svg"><g><path d="M14.82 12.02l1.41 1.41 -4.25 4.24 -4.25-4.25L9.14 12l1.82 1.82V6.28h2v7.53l1.82-1.83Z"/><path fill-rule="evenodd" d="M19.77 19.77c-4.3 4.29-11.27 4.29-15.56 0C-.09 15.47-.09 8.5 4.2 4.21c4.29-4.3 11.26-4.3 15.55 0 4.29 4.29 4.29 11.26 0 15.55Zm-1.42-1.42c-3.52 3.51-9.22 3.51-12.73 0C2.1 14.83 2.1 9.13 5.61 5.62c3.51-3.52 9.21-3.52 12.72 0 3.51 3.51 3.51 9.21 0 12.72Z"/></g></svg>
